X:79
T: Wenn ich mir ein Weibchen nehme (Band 1), S. 222
N: P0854
O: Lothringen
S: PINCK, Louis: Verklingende Weisen, Bd 1, Metz 1928]
R: ???, Brautwerbung?]
M: 2/8
L: 1/16
K: G
 | DBG2G2 | DBG2G
G | ABc2d2 | B2A
AAA | e3ccA | GBcd
GG | A2d2 | G2G2z2

